!!!OTL: Datie ge
!!!ARE: Asia, China,ÿHunan Hengdong
!! I, 511
!!!SCT: C1966
!!!YEM: Copyright 1995, estate of Helmut Schaffrath.
**kern
*ICvox
*Ivox
*M2/4
*k[f#]
*G:
{16g
16a
16g
16e
8.d
16e
=1
16g
16a
16g
16e
4d
=2
8g
4d
16e
16g
=3
16b
16a
16g
16e
4d}
=4
{8b
16e
16g
8.a
16b
=5
8g
16g
16a
4d
=6
8d
8d
8B
8g
=7
8.d
16e
16b
16b
16dd
16b
=8
16a
16b
4.a}
=9
{8a
4a
16g
16e
=10
8.d
16e
4g
=11
8.d
16e
8g
8d
=12
16g
16a
16g
16e
4d}
=13
{8a
4a
16g
16e
=14
8.d
16e
4g
=15
8.d
16e
16g
16a
8d
=16
16g
16a
16g
16e
4d}
=17
{8b
16g
16g
4a
=18
8g
16g
16g
4a
=19
16g
16g
16d
16e
4d
=20
8g
16g
16g
4d}
=21
{8g
8r
8g
8r
=22
8d
16r
16e
4d
=23
8b
16e
16g
8.a
16b
=24
8g
16g
16a
4d
=25
8.dd
16ee
8dd
16a
16b
=26
8.dd
16b
16a
16b
[8a
=27
2a]}
==
!!!AGN: Xiaodiao, Dengdiao
!!!ONB: ESAC (Essen Associative Code) Database: SENGANSU
!!!AMT: simple duple
!!!AIN: vox
!!!EED: Helmut Schaffrath
!!!EEV: 1.0
*-
!!!ONB: Tied note syntax fixed by Craig Sapp, 2004/05/03/
